!!!OTL: Deutsches Kaiserlied.
!!!OTL-incipit: DEUTSCHER KAISER GOTT BESCHUETZE
!!!COM: Graben-Hoffmann
!!!ARE: Europa, Mitteleuropa, Deutschland
!!!SCT: F0466
!!!TXL: @@DE
!!!YEM: Copyright 1995, estate of Helmut Schaffrath.
**kern	**text
*ICvox	*
*clefG2	*
*M4/4	*
*met(c)	*
*k[]	*
*C:	*
=1	=1
!LO:TX:a:t=Feierlich.	!
{2cc	Deut-
2b	-ſcher
=2	=2
2a	Kai-
2g	-ſer!
=3	=3
(4f	Gott
4e)	.
(4f	be-
4g)	.
=4	=4
2e	-ſchü-
2c}	-tʒe
=5	=5
{2cc	Dich
2b	und
=6	=6
2a	un-
2dd	-ſer
=7	=7
2cc	deut-
2b	-ſches
=8	=8
2cc	Land,
2r}	.
=9	=9
{2cc	halt
2b	auch
=10	=10
2a	in
2g	des
=11	=11
(4f	Wet-
4e)	.
(4f	-ters
4g)	.
=12	=12
2e	Bli-
2c}	-tʒe
=13	=13
{2cc	ſeg-
2b	-nend
=14	=14
2a	ü-
2dd	-ber
=15	=15
2cc	Dich
2b	die
=16	=16
2cc	Hand!
2r}	.
=17	=17
{2dd	Schir-
2dd	-me
=18	=18
2dd	Gott
2cc	Dein
=19	=19
2b	theu-
2e	-res
=20	=20
2b	Le-
2a}	-ben,
=21	=21
{2cc	ſei-
(4a	-ne
4b)	.
=22	=22
(4cc/	Gna-
4g)	.
(4e	-de
4a)	.
=23	=23
2g	ſei
(4d	uns
4f)	.
=24	=24
2e	nah'
2r}	.
=25	=25
{2g	bei
(4dd	dem
4ee)	.
=26	=26
2dd	Ruf,
2cc	den
=27	=27
(4b/	wir
4a)	.
(4b)	er-
4cc	.
=28	=28
2b	-he-
2a}	-ben:
=29	=29
{2cc	"Kai-
(4a	-ſer
4b/)	.
=30	=30
(4cc	und
4b	.
4cc)	.
4dd	Ger-
=31	=31
2ee	-ma-
2dd	-ni-
=32	=32
2cc	-a!"
2r}	.
==	==
!!!AGN: Vaterlands -, Heimat - Lied, Kaiser - Lied
!!!ONB: ESAC (Essen Associative Code) Database: FINK
!!!AMT: simple quadruple
!!!AIN: vox
!!!EED: Helmut Schaffrath
!!!EEV: 1.0
!!Text: F. A. Gebauer
!!!GTL: Vaterlands- und Heimathslieder.
!!!source: Musikalischer Hausschatz der Deutschen. Eine Sammlung von über 1000 Liedern und Gesängen mit Singstimmen und Klavierbegleitung. Leipzig, Litterarisches Verlags-Haus.
!!!page: 293
!!!ENC: Anna Maria Matuszewska
!!!EEV: 2024/03/14
*-	*-
